rospo-icon-theme-classic-common/48x48/apps/ltris.svg

<svg height="48" viewBox="0 0 48 48" width="48" xmlns="http://www.w3.org/2000/svg"><path d="m34.833321 4c-.461665 0-.833332.371683-.833332.833357v8.333306c0 .461675.371667.833325.833332.833325h8.333324c.461664 0 .833332-.37165.833332-.833325v-8.333306c0-.461674-.371668-.833357-.833332-.833357z" fill="#ff4e40"/><g fill="#ffc34e"><path d="m4.8333385 34.000005c-.4616659 0-.8333323.371683-.8333323.833357v8.333306c0 .461675.3716664.833325.8333323.833325h8.3333235c.461664 0 .833331-.37165.833331-.833325v-8.333306c0-.461674-.371667-.833357-.833331-.833357z"/><path d="m14.833333 34.000005c-.461666 0-.833332.371683-.833332.833357v8.333306c0 .461675.371666.833325.833332.833325h8.333324c.461664 0 .833331-.37165.833331-.833325v-8.333306c0-.461674-.371667-.833357-.833331-.833357z"/><path d="m24.833328 34.000005c-.461666 0-.833332.371683-.833332.833357v8.333306c0 .461675.371666.833325.833332.833325h8.333324c.461664 0 .833331-.37165.833331-.833325v-8.333306c0-.461674-.371667-.833357-.833331-.833357z"/><path d="m4.8333373 24c-.4616659 0-.8333323.371683-.8333323.833357v8.333306c0 .461675.3716664.833325.8333323.833325h8.3333237c.461664 0 .833331-.37165.833331-.833325v-8.333306c0-.461674-.371667-.833357-.833331-.833357z"/></g><path d="m14.833332 24c-.461666 0-.833333.371683-.833333.833357v8.333306c0 .461675.371666.833325.833333.833325h8.333323c.461664 0 .833332-.37165.833332-.833325v-8.333306c0-.461674-.371667-.833357-.833332-.833357z" fill="#3b70df"/><path d="m24.833327 24c-.461667 0-.833332.371683-.833332.833357v8.333306c0 .461675.371666.833325.833332.833325h8.333324c.461664 0 .833331-.37165.833331-.833325v-8.333306c0-.461674-.371667-.833357-.833331-.833357z" fill="#3b70df"/><path d="m34.833321 24c-.461665 0-.833332.371683-.833332.833357v8.333306c0 .461675.371667.833325.833332.833325h8.333324c.461664 0 .833332-.37165.833332-.833325v-8.333306c0-.461674-.371668-.833357-.833332-.833357z" fill="#ff4e40"/><path d="m4.8333385 14.000005c-.4616659 0-.8333323.371683-.8333323.833357v8.333306c0 .461675.3716664.833325.8333323.833325h8.3333235c.461664 0 .833331-.37165.833331-.833325v-8.333306c0-.461674-.371667-.833357-.833331-.833357z" fill="#3b70df"/><path d="m14.833333 14.000005c-.461666 0-.833332.371683-.833332.833357v8.333306c0 .461675.371666.833325.833332.833325h8.333324c.461664 0 .833331-.37165.833331-.833325v-8.333306c0-.461674-.371667-.833357-.833331-.833357z" fill="#3b70df"/><path d="m34.833323 14.000005c-.461666 0-.833332.371683-.833332.833357v8.333306c0 .461675.371666.833325.833332.833325h8.333324c.461664 0 .833331-.37165.833331-.833325v-8.333306c0-.461674-.371667-.833357-.833331-.833357z" fill="#ff4e40"/><path d="m24.833327 4c-.461667 0-.833332.371683-.833332.833357v8.333306c0 .461675.371666.833325.833332.833325h8.333324c.461664 0 .833331-.37165.833331-.833325v-8.333306c0-.461674-.371667-.833357-.833331-.833357z" fill="#ff4e40"/><g fill="#fff"><path d="m34.833984 4c-.461665 0-.833984.3723104-.833984.8339844v1c0-.461674.372319-.8339844.833984-.8339844h8.332032c.461664 0 .833984.3723104.833984.8339844v-1c0-.461674-.37232-.8339844-.833984-.8339844z" opacity=".2"/><path d="m24.833984 24c-.461667 0-.833984.37231-.833984.833984v1c0-.461674.372317-.833984.833984-.833984h8.332032c.461664 0 .833984.37231.833984.833984v-1c0-.461674-.37232-.833984-.833984-.833984z" opacity=".2"/><path d="m4.8339844 14c-.4616659 0-.8339844.37231-.8339844.833984v1c0-.461674.3723185-.833984.8339844-.833984h8.3320316c.461664 0 .833984.37231.833984.833984v-1c0-.461674-.37232-.833984-.833984-.833984z" opacity=".2"/><path d="m14.833984 14c-.461666 0-.833984.37231-.833984.833984v1c0-.461674.372318-.833984.833984-.833984h8.332032c.461664 0 .833984.37231.833984.833984v-1c0-.461674-.37232-.833984-.833984-.833984z" opacity=".2"/><path d="m24.833984 4c-.461667 0-.833984.3723104-.833984.8339844v1c0-.461674.372317-.8339844.833984-.8339844h8.332032c.461664 0 .833984.3723104.833984.8339844v-1c0-.461674-.37232-.8339844-.833984-.8339844z" opacity=".2"/></g><path d="m34 13.166016v1c0 .461675.372319.833984.833984.833984h8.332032c.461664 0 .833984-.372309.833984-.833984v-1c0 .461675-.37232.833984-.833984.833984h-8.332032c-.461665 0-.833984-.372309-.833984-.833984z" opacity=".2"/><path d="m4 43.166016v1c0 .461675.3723185.833984.8339844.833984h8.3320316c.461664 0 .833984-.372309.833984-.833984v-1c0 .461675-.37232.833984-.833984.833984h-8.3320316c-.4616659 0-.8339844-.372309-.8339844-.833984z" opacity=".2"/><path d="m14 43.166016v1c0 .461675.372318.833984.833984.833984h8.332032c.461664 0 .833984-.372309.833984-.833984v-1c0 .461675-.37232.833984-.833984.833984h-8.332032c-.461666 0-.833984-.372309-.833984-.833984z" opacity=".2"/><path d="m24 43.166016v1c0 .461675.372318.833984.833984.833984h8.332032c.461664 0 .833984-.372309.833984-.833984v-1c0 .461675-.37232.833984-.833984.833984h-8.332032c-.461666 0-.833984-.372309-.833984-.833984z" opacity=".2"/><path d="m4 33.166016v1c0 .461675.3723185.833984.8339844.833984h8.3320316c.461664 0 .833984-.372309.833984-.833984v-1c0 .461675-.37232.833984-.833984.833984h-8.3320316c-.4616659 0-.8339844-.372309-.8339844-.833984z" opacity=".2"/><path d="m14 33.166016v1c0 .461675.372317.833984.833984.833984h8.332032c.461664 0 .833984-.372309.833984-.833984v-1c0 .461675-.37232.833984-.833984.833984h-8.332032c-.461667 0-.833984-.372309-.833984-.833984z" opacity=".2"/><path d="m24 33.166016v1c0 .461675.372318.833984.833984.833984h8.332032c.461664 0 .833984-.372309.833984-.833984v-1c0 .461675-.37232.833984-.833984.833984h-8.332032c-.461666 0-.833984-.372309-.833984-.833984z" opacity=".2"/><path d="m34 33.166016v1c0 .461675.372319.833984.833984.833984h8.332032c.461664 0 .833984-.372309.833984-.833984v-1c0 .461675-.37232.833984-.833984.833984h-8.332032c-.461665 0-.833984-.372309-.833984-.833984z" opacity=".2"/><path d="m4 23.166016v1c0 .461675.3723185.833984.8339844.833984h8.3320316c.461664 0 .833984-.372309.833984-.833984v-1c0 .461675-.37232.833984-.833984.833984h-8.3320316c-.4616659 0-.8339844-.372309-.8339844-.833984z" opacity=".2"/><path d="m14 23.166016v1c0 .461675.372318.833984.833984.833984h8.332032c.461664 0 .833984-.372309.833984-.833984v-1c0 .461675-.37232.833984-.833984.833984h-8.332032c-.461666 0-.833984-.372309-.833984-.833984z" opacity=".2"/><path d="m34 23.166016v1c0 .461675.372318.833984.833984.833984h8.332032c.461664 0 .833984-.372309.833984-.833984v-1c0 .461675-.37232.833984-.833984.833984h-8.332032c-.461666 0-.833984-.372309-.833984-.833984z" opacity=".2"/><path d="m24 13.166016v1c0 .461675.372318.833984.833984.833984h8.332032c.461664 0 .833984-.372309.833984-.833984v-1c0 .461675-.37232.833984-.833984.833984h-8.332032c-.461666 0-.833984-.372309-.833984-.833984z" opacity=".2"/></svg>

<svg xmlns="http://www.w3.org/2000/svg" width="48" height="48" version="1.1" viewBox="0 0 48 48">
 <path d="m 34.833321,4 c -0.461665,0 -0.833332,0.371683 -0.833332,0.833357 l 0,8.333306 c 0,0.461675 0.371667,0.833325 0.833332,0.833325 l 8.333324,0 c 0.461664,0 0.833332,-0.37165 0.833332,-0.833325 l 0,-8.333306 C 43.999977,4.371683 43.628309,4 43.166645,4 Z" style="fill:#ff4e40;stroke:#808080;stroke-width:0;stroke-linecap:round;stroke-linejoin:round"/>
 <path d="m 4.8333385,34.000005 c -0.4616659,0 -0.8333323,0.371683 -0.8333323,0.833357 l 0,8.333306 c 0,0.461675 0.3716664,0.833325 0.8333323,0.833325 l 8.3333235,0 c 0.461664,0 0.833331,-0.37165 0.833331,-0.833325 l 0,-8.333306 c 0,-0.461674 -0.371667,-0.833357 -0.833331,-0.833357 z" style="fill:#ffc34e;stroke:#808080;stroke-width:0;stroke-linecap:round;stroke-linejoin:round"/>
 <path style="fill:#ffc34e;stroke:#808080;stroke-width:0;stroke-linecap:round;stroke-linejoin:round" d="m 14.833333,34.000005 c -0.461666,0 -0.833332,0.371683 -0.833332,0.833357 l 0,8.333306 c 0,0.461675 0.371666,0.833325 0.833332,0.833325 l 8.333324,0 c 0.461664,0 0.833331,-0.37165 0.833331,-0.833325 l 0,-8.333306 c 0,-0.461674 -0.371667,-0.833357 -0.833331,-0.833357 z"/>
 <path style="fill:#ffc34e;stroke:#808080;stroke-width:0;stroke-linecap:round;stroke-linejoin:round" d="m 24.833328,34.000005 c -0.461666,0 -0.833332,0.371683 -0.833332,0.833357 l 0,8.333306 c 0,0.461675 0.371666,0.833325 0.833332,0.833325 l 8.333324,0 c 0.461664,0 0.833331,-0.37165 0.833331,-0.833325 l 0,-8.333306 c 0,-0.461674 -0.371667,-0.833357 -0.833331,-0.833357 z"/>
 <path style="fill:#ffc34e;stroke:#808080;stroke-width:0;stroke-linecap:round;stroke-linejoin:round" d="M 4.8333373,24 C 4.3716714,24 4.000005,24.371683 4.000005,24.833357 l 0,8.333306 c 0,0.461675 0.3716664,0.833325 0.8333323,0.833325 l 8.3333237,0 c 0.461664,0 0.833331,-0.37165 0.833331,-0.833325 l 0,-8.333306 C 13.999992,24.371683 13.628325,24 13.166661,24 Z"/>
 <path d="m 14.833332,24 c -0.461666,0 -0.833333,0.371683 -0.833333,0.833357 l 0,8.333306 c 0,0.461675 0.371666,0.833325 0.833333,0.833325 l 8.333323,0 c 0.461664,0 0.833332,-0.37165 0.833332,-0.833325 l 0,-8.333306 C 23.999987,24.371683 23.62832,24 23.166655,24 Z" style="fill:#3b70df;stroke:#808080;stroke-width:0;stroke-linecap:round;stroke-linejoin:round"/>
 <path d="m 24.833327,24 c -0.461667,0 -0.833332,0.371683 -0.833332,0.833357 l 0,8.333306 c 0,0.461675 0.371666,0.833325 0.833332,0.833325 l 8.333324,0 c 0.461664,0 0.833331,-0.37165 0.833331,-0.833325 l 0,-8.333306 C 33.999982,24.371683 33.628315,24 33.166651,24 Z" style="fill:#3b70df;stroke:#808080;stroke-width:0;stroke-linecap:round;stroke-linejoin:round"/>
 <path style="fill:#ff4e40;stroke:#808080;stroke-width:0;stroke-linecap:round;stroke-linejoin:round" d="m 34.833321,24 c -0.461665,0 -0.833332,0.371683 -0.833332,0.833357 l 0,8.333306 c 0,0.461675 0.371667,0.833325 0.833332,0.833325 l 8.333324,0 c 0.461664,0 0.833332,-0.37165 0.833332,-0.833325 l 0,-8.333306 C 43.999977,24.371683 43.628309,24 43.166645,24 Z"/>
 <path style="fill:#3b70df;stroke:#808080;stroke-width:0;stroke-linecap:round;stroke-linejoin:round" d="m 4.8333385,14.000005 c -0.4616659,0 -0.8333323,0.371683 -0.8333323,0.833357 l 0,8.333306 c 0,0.461675 0.3716664,0.833325 0.8333323,0.833325 l 8.3333235,0 c 0.461664,0 0.833331,-0.37165 0.833331,-0.833325 l 0,-8.333306 c 0,-0.461674 -0.371667,-0.833357 -0.833331,-0.833357 z"/>
 <path d="m 14.833333,14.000005 c -0.461666,0 -0.833332,0.371683 -0.833332,0.833357 l 0,8.333306 c 0,0.461675 0.371666,0.833325 0.833332,0.833325 l 8.333324,0 c 0.461664,0 0.833331,-0.37165 0.833331,-0.833325 l 0,-8.333306 c 0,-0.461674 -0.371667,-0.833357 -0.833331,-0.833357 z" style="fill:#3b70df;stroke:#808080;stroke-width:0;stroke-linecap:round;stroke-linejoin:round"/>
 <path style="fill:#ff4e40;stroke:#808080;stroke-width:0;stroke-linecap:round;stroke-linejoin:round" d="m 34.833323,14.000005 c -0.461666,0 -0.833332,0.371683 -0.833332,0.833357 l 0,8.333306 c 0,0.461675 0.371666,0.833325 0.833332,0.833325 l 8.333324,0 c 0.461664,0 0.833331,-0.37165 0.833331,-0.833325 l 0,-8.333306 c 0,-0.461674 -0.371667,-0.833357 -0.833331,-0.833357 z"/>
 <path style="fill:#ff4e40;stroke:#808080;stroke-width:0;stroke-linecap:round;stroke-linejoin:round" d="M 24.833327,4 C 24.37166,4 23.999995,4.371683 23.999995,4.833357 l 0,8.333306 c 0,0.461675 0.371666,0.833325 0.833332,0.833325 l 8.333324,0 c 0.461664,0 0.833331,-0.37165 0.833331,-0.833325 l 0,-8.333306 C 33.999982,4.371683 33.628315,4 33.166651,4 Z"/>
 <path style="fill:#ffffff;stroke:#808080;stroke-width:0;stroke-linecap:round;stroke-linejoin:round;opacity:0.2" d="M 34.833984 4 C 34.372319 4 34 4.3723104 34 4.8339844 L 34 5.8339844 C 34 5.3723104 34.372319 5 34.833984 5 L 43.166016 5 C 43.62768 5 44 5.3723104 44 5.8339844 L 44 4.8339844 C 44 4.3723104 43.62768 4 43.166016 4 L 34.833984 4 z"/>
 <path style="fill:#ffffff;stroke:#808080;stroke-width:0;stroke-linecap:round;stroke-linejoin:round;opacity:0.2" d="M 24.833984 24 C 24.372317 24 24 24.37231 24 24.833984 L 24 25.833984 C 24 25.37231 24.372317 25 24.833984 25 L 33.166016 25 C 33.62768 25 34 25.37231 34 25.833984 L 34 24.833984 C 34 24.37231 33.62768 24 33.166016 24 L 24.833984 24 z"/>
 <path style="fill:#ffffff;stroke:#808080;stroke-width:0;stroke-linecap:round;stroke-linejoin:round;opacity:0.2" d="M 4.8339844 14 C 4.3723185 14 4 14.37231 4 14.833984 L 4 15.833984 C 4 15.37231 4.3723185 15 4.8339844 15 L 13.166016 15 C 13.62768 15 14 15.37231 14 15.833984 L 14 14.833984 C 14 14.37231 13.62768 14 13.166016 14 L 4.8339844 14 z"/>
 <path style="fill:#ffffff;stroke:#808080;stroke-width:0;stroke-linecap:round;stroke-linejoin:round;opacity:0.2" d="M 14.833984 14 C 14.372318 14 14 14.37231 14 14.833984 L 14 15.833984 C 14 15.37231 14.372318 15 14.833984 15 L 23.166016 15 C 23.62768 15 24 15.37231 24 15.833984 L 24 14.833984 C 24 14.37231 23.62768 14 23.166016 14 L 14.833984 14 z"/>
 <path style="fill:#ffffff;stroke:#808080;stroke-width:0;stroke-linecap:round;stroke-linejoin:round;opacity:0.2" d="M 24.833984 4 C 24.372317 4 24 4.3723104 24 4.8339844 L 24 5.8339844 C 24 5.3723104 24.372317 5 24.833984 5 L 33.166016 5 C 33.62768 5 34 5.3723104 34 5.8339844 L 34 4.8339844 C 34 4.3723104 33.62768 4 33.166016 4 L 24.833984 4 z"/>
 <path style="opacity:0.2;stroke:#808080;stroke-width:0;stroke-linecap:round;stroke-linejoin:round" d="M 34 13.166016 L 34 14.166016 C 34 14.627691 34.372319 15 34.833984 15 L 43.166016 15 C 43.62768 15 44 14.627691 44 14.166016 L 44 13.166016 C 44 13.627691 43.62768 14 43.166016 14 L 34.833984 14 C 34.372319 14 34 13.627691 34 13.166016 z"/>
 <path style="opacity:0.2;stroke:#808080;stroke-width:0;stroke-linecap:round;stroke-linejoin:round" d="M 4 43.166016 L 4 44.166016 C 4 44.627691 4.3723185 45 4.8339844 45 L 13.166016 45 C 13.62768 45 14 44.627691 14 44.166016 L 14 43.166016 C 14 43.627691 13.62768 44 13.166016 44 L 4.8339844 44 C 4.3723185 44 4 43.627691 4 43.166016 z"/>
 <path style="opacity:0.2;stroke:#808080;stroke-width:0;stroke-linecap:round;stroke-linejoin:round" d="M 14 43.166016 L 14 44.166016 C 14 44.627691 14.372318 45 14.833984 45 L 23.166016 45 C 23.62768 45 24 44.627691 24 44.166016 L 24 43.166016 C 24 43.627691 23.62768 44 23.166016 44 L 14.833984 44 C 14.372318 44 14 43.627691 14 43.166016 z"/>
 <path style="opacity:0.2;stroke:#808080;stroke-width:0;stroke-linecap:round;stroke-linejoin:round" d="M 24 43.166016 L 24 44.166016 C 24 44.627691 24.372318 45 24.833984 45 L 33.166016 45 C 33.62768 45 34 44.627691 34 44.166016 L 34 43.166016 C 34 43.627691 33.62768 44 33.166016 44 L 24.833984 44 C 24.372318 44 24 43.627691 24 43.166016 z"/>
 <path style="opacity:0.2;stroke:#808080;stroke-width:0;stroke-linecap:round;stroke-linejoin:round" d="M 4 33.166016 L 4 34.166016 C 4 34.627691 4.3723185 35 4.8339844 35 L 13.166016 35 C 13.62768 35 14 34.627691 14 34.166016 L 14 33.166016 C 14 33.627691 13.62768 34 13.166016 34 L 4.8339844 34 C 4.3723185 34 4 33.627691 4 33.166016 z"/>
 <path style="opacity:0.2;stroke:#808080;stroke-width:0;stroke-linecap:round;stroke-linejoin:round" d="M 14 33.166016 L 14 34.166016 C 14 34.627691 14.372317 35 14.833984 35 L 23.166016 35 C 23.62768 35 24 34.627691 24 34.166016 L 24 33.166016 C 24 33.627691 23.62768 34 23.166016 34 L 14.833984 34 C 14.372317 34 14 33.627691 14 33.166016 z"/>
 <path style="opacity:0.2;stroke:#808080;stroke-width:0;stroke-linecap:round;stroke-linejoin:round" d="M 24 33.166016 L 24 34.166016 C 24 34.627691 24.372318 35 24.833984 35 L 33.166016 35 C 33.62768 35 34 34.627691 34 34.166016 L 34 33.166016 C 34 33.627691 33.62768 34 33.166016 34 L 24.833984 34 C 24.372318 34 24 33.627691 24 33.166016 z"/>
 <path style="opacity:0.2;stroke:#808080;stroke-width:0;stroke-linecap:round;stroke-linejoin:round" d="M 34 33.166016 L 34 34.166016 C 34 34.627691 34.372319 35 34.833984 35 L 43.166016 35 C 43.62768 35 44 34.627691 44 34.166016 L 44 33.166016 C 44 33.627691 43.62768 34 43.166016 34 L 34.833984 34 C 34.372319 34 34 33.627691 34 33.166016 z"/>
 <path style="opacity:0.2;stroke:#808080;stroke-width:0;stroke-linecap:round;stroke-linejoin:round" d="M 4 23.166016 L 4 24.166016 C 4 24.627691 4.3723185 25 4.8339844 25 L 13.166016 25 C 13.62768 25 14 24.627691 14 24.166016 L 14 23.166016 C 14 23.627691 13.62768 24 13.166016 24 L 4.8339844 24 C 4.3723185 24 4 23.627691 4 23.166016 z"/>
 <path style="opacity:0.2;stroke:#808080;stroke-width:0;stroke-linecap:round;stroke-linejoin:round" d="M 14 23.166016 L 14 24.166016 C 14 24.627691 14.372318 25 14.833984 25 L 23.166016 25 C 23.62768 25 24 24.627691 24 24.166016 L 24 23.166016 C 24 23.627691 23.62768 24 23.166016 24 L 14.833984 24 C 14.372318 24 14 23.627691 14 23.166016 z"/>
 <path style="opacity:0.2;stroke:#808080;stroke-width:0;stroke-linecap:round;stroke-linejoin:round" d="M 34 23.166016 L 34 24.166016 C 34 24.627691 34.372318 25 34.833984 25 L 43.166016 25 C 43.62768 25 44 24.627691 44 24.166016 L 44 23.166016 C 44 23.627691 43.62768 24 43.166016 24 L 34.833984 24 C 34.372318 24 34 23.627691 34 23.166016 z"/>
 <path style="opacity:0.2;stroke:#808080;stroke-width:0;stroke-linecap:round;stroke-linejoin:round" d="M 24 13.166016 L 24 14.166016 C 24 14.627691 24.372318 15 24.833984 15 L 33.166016 15 C 33.62768 15 34 14.627691 34 14.166016 L 34 13.166016 C 34 13.627691 33.62768 14 33.166016 14 L 24.833984 14 C 24.372318 14 24 13.627691 24 13.166016 z"/>
</svg>
